X:1
T:Title
%%score { ( 1 3 ) | ( 2 4 ) }
L:1/8
M:4/4
K:E
V:1 treble nm="Grand Piano"
V:3 treble 
V:2 bass 
V:4 bass 
V:1
 z4 z2[Q:1/4=100] E>F | G2 G2 F2 E2 | G2 [GB]4 [EB]>[EB] | [DB]4 [DF]4 | G6 G>F | E2 E2 G2 [GB]2 | %6
 [Ac]2 [GB]4 [B,E]>[CEF] | [B,EG]4 [A,DF]4 | [G,B,E]6 [G,B,E]>[G,=DE] | %9
 [A,CE]2 [CEA]2 [CEA]2 [CEA]2 | [CEA]6 [CEA]>[CEA] | [B,EG]2 [EG]2 [B,EG]2 [B,EG]2 | %12
 [DF]6 [DF]>[DF] | G2 G2 A2 c2 |[M:3/4] B6 |[M:1/4] [B,E]>[CEF] |[M:4/4] [B,EG]4 [A,DF]4 | %17
[M:3/4] [G,B,E]6 |[M:1/4] [B,EG]>[B,FA] |[M:4/4] [EGB]4 [DAB]4 | [EGB]6 [GB]>[GB] | %21
 z4 [EAc]4[K:bass] | [GB]6 [GB]>[GB] | [Ge]2 [Ge]2 [Bd]2 .[CAc]2 | [EGB]2 [Ge]4 [EG]>[EA] | %25
 [DB]4 [FB]4 |[M:3/4] [EB]6 |] %27
V:2
 z4 z2 [E,G,]>[E,A,E] | [E,B,E]2 [E,B,E]2 [E,A,B,]2 [E,G,B,]2 | [E,B,E]2 [E,E]4 [E,G,]>[E,G,] | %3
 [B,,F,]4 [B,,B,]4 | [E,B,E]6 [E,B,E]>[E,A,B,] | [E,G,B,]2 [E,G,B,]2 [E,B,E]2 [E,E]2 | %6
 [E,E]2 [E,E]4 G,,>A,, | B,,4 B,,4 | E,6 E,>E, | A,,2 A,,2 A,,2 A,,2 | A,,6 A,,>A,, | %11
 E,2 [B,,E,B,]2 [G,,E,]2 [E,,E,]2 | [B,,B,]6 [B,,B,]>[B,,B,] | %13
 [E,B,E]2 [E,B,E]2 [F,B,D]2 [A,B,D]2 |[M:3/4] [G,B,E]6 |[M:1/4] G,,>A,, |[M:4/4] B,,4 B,,4 | %17
[M:3/4] E,6 |[M:1/4] E,>E, |[M:4/4] E,4 F,4 | G,6 [E,E]>[E,E] | [A,E]4 A,4 | [E,E]6 [E,E]>[E,E] | %23
 [E,B,]2 [E,B,]2 [E,B,]2 z D | E,2 [E,B,]4 [E,G,]>[E,G,] | [B,,F,]4 [B,,A,]4 |[M:3/4] [E,G,]6 |] %27
V:3
 x8 | x8 | x8 | x8 | x8 | x8 | x8 | x8 | x8 | x8 | x8 | x8 | x8 | x8 |[M:3/4] x6 |[M:1/4] x2 | %16
[M:4/4] x8 |[M:3/4] x6 |[M:1/4] x2 |[M:4/4] x8 | x8 | [Ac]4 z2[K:bass] C,2 | x8 | x8 | x8 | x8 | %26
[M:3/4] x6 |] %27
V:4
 x8 | x8 | x8 | x8 | x8 | x8 | x8 | x8 | x8 | x8 | x8 | x8 | x8 | x8 |[M:3/4] x6 |[M:1/4] x2 | %16
[M:4/4] x8 |[M:3/4] x6 |[M:1/4] x2 |[M:4/4] x8 | x8 | z4 A,,2 z2 | x8 | z4 z2 E,2 | x8 | x8 | %26
[M:3/4] x6 |] %27

